src/parts/facialHair/MoustacheFancy.svg

<svg>
  <g
    id="Facial-Hair/Moustache-Fancy"
    transform="translate(49.000000, 72.000000)"
  >
    <defs>
      <path
        id="MoustacheFancy-path1"
        d="M84.0002865,69.2970648 C77.2083681,65.7112456 67.5782013,65.1489138 62.3885276,67.1316942 C56.6144416,69.3374281 51.5052994,75.5829845 42.6388201,72.8283797 C42.2699314,72.7136458 41.9094725,73.0449523 42.0204089,73.408662 C43.3937943,77.9183313 51.0278347,81.0068878 53.6221945,81.1080652 C64.961124,81.549609 74.0949802,72.8302891 84.0002865,72.1614794 C93.9055921,72.8302891 103.03945,81.549609 114.378714,81.1080652 C116.972736,81.0068878 124.607113,77.9183313 125.980498,73.408662 C126.091098,73.0449523 125.730639,72.7136458 125.36175,72.8283797 C116.495271,75.5829845 111.386129,69.3374281 105.612044,67.1316942 C100.422371,65.1489138 90.7922044,65.7112456 84.0002865,69.2970648 Z"
      />
    </defs>
    <mask
      id="MoustacheFancy-mask1"
      fill="white"
    >
      <use href="#MoustacheFancy-path1" />
    </mask>
    <use
      class="CustomColor"
      fill="var(--avataaar-facial-hair-color)"
      fillRule="evenodd"
      href="#MoustacheFancy-path1"
    />
  </g>
</svg>

<svg>
  <g id="Facial-Hair/Moustache-Fancy" transform="translate(49 72)">
    <defs>
      <path id="MoustacheFancy-path1" d="M84 69.297c-6.792-3.586-16.422-4.148-21.611-2.165-5.775 2.205-10.884 8.451-19.75 5.696-.37-.114-.73.217-.619.58 1.374 4.51 9.008 7.599 11.602 7.7 11.34.442 20.473-8.278 30.378-8.947 9.906.67 19.04 9.389 30.379 8.947 2.594-.101 10.228-3.19 11.601-7.7.111-.363-.25-.694-.618-.58-8.867 2.755-13.976-3.49-19.75-5.696-5.19-1.983-14.82-1.42-21.612 2.165Z"/>
    </defs>
    <mask id="MoustacheFancy-mask1" fill="#fff">
      <use href="#MoustacheFancy-path1"/>
    </mask>
    <use fill="var(--avataaar-facial-hair-color)" class="CustomColor" href="#MoustacheFancy-path1"/>
  </g>
</svg>
